resources/svg/arrow-right-circle-line.svg

<svg xmlns="http://www.w3.org/2000/svg" viewBox="0 0 24 24" fill="currentColor">
    <g>
        <path fill="none" d="M0 0h24v24H0z"/>
        <path d="M12 11V8l4 4-4 4v-3H8v-2h4zm0-9c5.52 0 10 4.48 10 10s-4.48 10-10 10S2 17.52 2 12 6.48 2 12 2zm0 18c4.42 0 8-3.58 8-8s-3.58-8-8-8-8 3.58-8 8 3.58 8 8 8z"/>
    </g>
</svg>

<svg fill="currentColor" viewBox="0 0 24 24" xmlns="http://www.w3.org/2000/svg"><path d="M12 11V8L16 12L12 16V13H8V11H12ZM12 2C17.52 2 22 6.48 22 12C22 17.52 17.52 22 12 22C6.48 22 2 17.52 2 12C2 6.48 6.48 2 12 2ZM12 20C16.42 20 20 16.42 20 12C20 7.58 16.42 4 12 4C7.58 4 4 7.58 4 12C4 16.42 7.58 20 12 20Z"/></svg>
